libs/ui/packages/crypto-icons/src/svg/JMNT.svg

<svg width="24" height="24" viewBox="0 0 24 24" fill="none" xmlns="http://www.w3.org/2000/svg">
<path d="M12.8827 14.8393C13.1096 14.7425 13.3246 14.6475 13.5425 14.5607C13.566 14.5516 13.6257 14.5824 13.6419 14.6104C14.0748 15.3513 14.5041 16.0949 14.9343 16.8375C14.985 16.9243 15.0364 17.0112 15.0934 17.108C15.2615 16.9968 15.4206 16.8919 15.6023 16.7715C16.1952 17.5838 16.7925 18.4025 17.3991 19.2329C17.0294 19.5233 16.6181 19.7485 16.2015 19.9874C16.1717 19.9349 16.1454 19.8905 16.1219 19.8445C15.7224 19.0556 15.323 18.2668 14.9226 17.478C14.9054 17.4445 14.8919 17.4038 14.8639 17.3839C14.8349 17.3631 14.7843 17.345 14.7554 17.3568C14.5258 17.4473 14.3007 17.5467 14.0721 17.6399C14.0152 17.6635 13.9898 17.6824 14.0134 17.7539C14.3007 18.625 14.5846 19.498 14.8693 20.37C14.8828 20.4125 14.9 20.4541 14.9199 20.5084C14.4698 20.664 14.0106 20.7707 13.5326 20.8413C13.3725 19.8354 13.2135 18.8376 13.0545 17.8381C13.2253 17.8 13.3852 17.7593 13.5461 17.7295C13.6347 17.7132 13.65 17.6833 13.6257 17.5929C13.3744 16.6756 13.1285 15.7575 12.8809 14.8375L12.8827 14.8393Z" fill="white"/>
<path d="M17.2071 9.05798C17.105 8.90422 17.0119 8.75942 16.9134 8.61835C16.8763 8.56589 16.8836 8.53786 16.9351 8.5007C17.7287 7.9218 18.5204 7.34196 19.3139 6.76212C19.3194 6.7585 19.3274 6.75758 19.3582 6.74854C19.6022 7.14295 19.849 7.54277 20.1011 7.94983C19.2018 8.41303 18.3225 8.86529 17.4385 9.32033C17.5551 9.59894 17.6717 9.87754 17.7928 10.1652C17.9889 10.1001 18.186 10.034 18.3839 9.96893C19.0807 9.74093 19.7776 9.51295 20.4753 9.28589C20.6181 9.2389 20.6236 9.2389 20.6606 9.3809C20.7655 9.78617 20.8657 10.1923 20.9724 10.6166C19.9457 10.7803 18.9461 10.9395 17.9428 11.0997C17.9058 10.9323 17.866 10.774 17.8353 10.6139C17.8181 10.5252 17.782 10.509 17.6943 10.5334C16.814 10.7758 15.9328 11.0128 15.0516 11.2516C15.0163 11.2615 14.9792 11.2679 14.9359 11.2779C14.9205 11.2362 14.907 11.1982 14.8916 11.1612C14.8328 11.0155 14.7804 10.8671 14.7136 10.7251C14.625 10.537 14.624 10.5714 14.7913 10.4736C15.5667 10.0195 16.3449 9.56904 17.1222 9.1177C17.1475 9.10322 17.171 9.0851 17.209 9.05976L17.2071 9.05798Z" fill="white"/>
<path d="M4.16935 16.103C5.07225 15.6371 5.95255 15.183 6.83287 14.7288C6.71445 14.4466 6.59877 14.1689 6.48127 13.8885C5.54584 14.1934 4.6086 14.5 3.65688 14.8103C3.50505 14.3607 3.39931 13.9057 3.3252 13.4299C4.33293 13.2689 5.32982 13.1105 6.33033 12.9504C6.3665 13.116 6.40716 13.2743 6.43608 13.4362C6.45235 13.5267 6.48669 13.5421 6.57348 13.5185C7.47544 13.2707 8.37837 13.0273 9.28125 12.7831C9.29572 12.7795 9.30928 12.7758 9.33184 12.7695C9.34907 12.813 9.36439 12.8537 9.38063 12.8944C9.4313 13.0237 9.4774 13.154 9.53344 13.2807C9.6292 13.4941 9.63191 13.4933 9.42227 13.6144C8.71907 14.0224 8.01592 14.4304 7.31368 14.8392C7.23324 14.8863 7.15461 14.9351 7.06514 14.9894C7.16546 15.1423 7.25944 15.2906 7.35796 15.4363C7.39231 15.4869 7.39142 15.514 7.33718 15.5539C6.64756 16.0523 5.95888 16.5535 5.27107 17.0537C5.16172 17.1333 5.05327 17.212 4.91769 17.3097C4.66735 16.9071 4.41969 16.5091 4.16844 16.1048L4.16935 16.103Z" fill="white"/>
<path d="M9.3531 3.51489C9.81767 3.40452 10.2678 3.29688 10.7314 3.18652C10.895 4.20962 11.055 5.20284 11.2159 6.20875C11.0197 6.25308 10.8245 6.29832 10.6176 6.34536C10.876 7.30512 11.1318 8.25496 11.3912 9.21921C11.337 9.23918 11.2818 9.2572 11.2285 9.27986C11.0803 9.34226 10.9294 9.40012 10.7866 9.47256C10.7043 9.51415 10.6628 9.50421 10.6176 9.42456C10.3301 8.92344 10.04 8.425 9.74985 7.92566C9.56188 7.60183 9.37389 7.27797 9.18052 6.94509C9.01062 7.05544 8.84882 7.1604 8.66898 7.27797C8.07244 6.46024 7.47503 5.64158 6.86133 4.80031C7.26443 4.54884 7.66029 4.30279 8.0643 4.05129C8.09414 4.10107 8.11401 4.13181 8.13028 4.16438C8.52974 4.95319 8.92833 5.74288 9.32786 6.53169C9.42815 6.72979 9.42902 6.72528 9.63062 6.63753C9.80867 6.55975 9.98757 6.48285 10.1711 6.41863C10.2596 6.38786 10.2777 6.358 10.2479 6.26755C9.95685 5.38557 9.67034 4.5018 9.38205 3.61891C9.37389 3.59448 9.36851 3.57007 9.3531 3.51578V3.51489Z" fill="white"/>
<path d="M9.18163 17.1839C9.0343 17.0917 8.89781 17.0139 8.77034 16.9234C8.68634 16.8637 8.63662 16.8755 8.57789 16.9578C8.03196 17.7195 7.48334 18.4802 6.93475 19.2401C6.92842 19.2491 6.92208 19.259 6.91123 19.2745C6.53254 18.9823 6.16289 18.6937 5.83301 18.3437C7.26101 16.9216 8.67996 15.5086 10.1008 14.0947C10.2824 14.2332 10.4867 14.3897 10.7009 14.5534C10.2011 15.42 9.69494 16.2965 9.18247 17.1849L9.18163 17.1839Z" fill="white"/>
<path d="M19.3814 17.277C19.0741 17.6362 18.7732 17.9881 18.4559 18.3581C17.0252 16.9089 15.617 15.4833 14.208 14.0567C14.3426 13.8803 14.4981 13.6758 14.6599 13.4624C15.5267 13.9635 16.3997 14.4683 17.2909 14.9839C17.2005 15.1259 17.1201 15.2689 17.0225 15.3992C16.9574 15.486 16.9764 15.5267 17.0577 15.5845C17.7843 16.1083 18.5083 16.6357 19.2332 17.1621C19.2756 17.193 19.3154 17.2264 19.3805 17.277H19.3814Z" fill="white"/>
<path d="M10.0799 9.9753C9.92894 10.1725 9.77167 10.3761 9.61171 10.5841C9.25922 10.3815 8.90311 10.1771 8.54707 9.97167C8.06349 9.69308 7.58176 9.41178 7.09732 9.13494C7.01056 9.0861 6.98256 9.04357 7.04853 8.95405C7.12353 8.85181 7.1814 8.73608 7.2564 8.63384C7.31064 8.55963 7.29345 8.52435 7.22297 8.47374C6.45652 7.92282 5.69191 7.3683 4.92729 6.81378C4.92187 6.81015 4.91916 6.80202 4.89746 6.77036C5.19573 6.41847 5.4994 6.06025 5.81935 5.68213C7.25189 7.12587 8.66455 8.54876 10.0799 9.97446V9.9753Z" fill="white"/>
<path d="M17.3725 4.76749C17.7341 5.07505 18.0893 5.37719 18.4508 5.68386C17.0128 7.11944 15.5939 8.53508 14.1686 9.95715C14.0692 9.87841 13.9472 9.78164 13.8242 9.68487C13.8007 9.66584 13.7764 9.64866 13.752 9.63147C13.5703 9.50487 13.5684 9.50396 13.676 9.31489C14.127 8.52877 14.5807 7.74361 15.0299 6.95571C15.0697 6.88604 15.1094 6.87702 15.1718 6.91681C15.2821 6.98737 15.3978 7.05068 15.5035 7.12758C15.5803 7.18275 15.6264 7.18367 15.6852 7.10226C16.2202 6.35595 16.7579 5.61147 17.2957 4.86611C17.3147 4.83987 17.3355 4.81364 17.3716 4.7666L17.3725 4.76749Z" fill="white"/>
<path d="M14.9433 12.7821C14.975 12.527 15.0057 12.2837 15.0373 12.0312H21.0693C21.0358 12.4944 21.0033 12.9521 20.9698 13.4216C20.6789 13.3764 20.4177 13.3366 20.1555 13.2958C19.4677 13.1882 18.7791 13.0806 18.0913 12.972C18.0226 12.9611 17.991 12.9756 17.981 13.0534C17.9647 13.1828 17.9277 13.3103 17.9087 13.4397C17.8943 13.5374 17.8482 13.5537 17.7614 13.5311C17.3212 13.4116 16.8801 13.2931 16.4391 13.1773C15.9764 13.0552 15.5118 12.9359 15.0491 12.8146C15.0102 12.8047 14.9723 12.7911 14.9424 12.7829L14.9433 12.7821Z" fill="white"/>
<path d="M9.33008 11.2679C9.29753 11.5247 9.26681 11.7681 9.23518 12.0187H3.2041C3.23753 11.5546 3.27008 11.0978 3.30262 10.6292C4.31127 10.7857 5.28917 10.9377 6.26799 11.0897C6.30325 10.9214 6.3403 10.7731 6.36291 10.622C6.38007 10.5071 6.4352 10.4918 6.53463 10.5189C6.92055 10.6256 7.30738 10.7288 7.69421 10.8309C8.20757 10.9675 8.72096 11.1024 9.23432 11.238C9.2695 11.2471 9.30392 11.2597 9.32917 11.2679H9.33008Z" fill="white"/>
<path d="M12.1367 9.1166V3.10465C12.5949 3.09471 13.0477 3.1309 13.5159 3.20146C13.496 3.35072 13.4798 3.49815 13.4572 3.64378C13.3324 4.43984 13.2068 5.23587 13.0785 6.03102C13.0631 6.1251 13.083 6.16671 13.1842 6.17756C13.3026 6.19023 13.4183 6.22911 13.5367 6.2445C13.6506 6.25897 13.6678 6.30872 13.6397 6.41276C13.5069 6.89672 13.3794 7.38157 13.2511 7.86733C13.1399 8.29066 13.0297 8.71496 12.9203 9.13918C12.904 9.20252 12.8778 9.22153 12.8101 9.21068C12.5922 9.17631 12.3735 9.14912 12.1367 9.11744V9.1166Z" fill="white"/>
<path d="M12.1276 20.969C11.6902 20.9319 11.2618 20.8949 10.8334 20.8604C10.7529 20.8541 10.7566 20.8071 10.7656 20.7519C10.8361 20.2924 10.9057 19.8328 10.9771 19.3733C11.0475 18.9174 11.1207 18.4624 11.1922 18.0064C11.1976 17.9712 11.1976 17.9341 11.2003 17.8952C11.0403 17.8635 10.8894 17.8373 10.7403 17.8047C10.6065 17.7758 10.6002 17.7614 10.6354 17.6292C10.8243 16.9201 11.0132 16.2099 11.2021 15.5007C11.2618 15.2773 11.3196 15.053 11.3775 14.835C11.6278 14.8676 11.8718 14.8983 12.1276 14.9309V20.969Z" fill="white"/>
<path d="M8.09375 19.9825C8.33596 19.5003 8.56734 19.039 8.80053 18.5785C9.00568 18.1742 9.2163 17.7735 9.41961 17.3682C9.45309 17.3013 9.48109 17.2787 9.55516 17.3094C9.78925 17.4081 10.0252 17.503 10.2628 17.5953C10.3424 17.626 10.3216 17.6794 10.3053 17.7328C10.2267 17.9824 10.1463 18.2321 10.0668 18.4818C9.85614 19.1412 9.64561 19.8007 9.43593 20.4601C9.41329 20.5307 9.36995 20.5208 9.322 20.5026C9.04271 20.395 8.76349 20.2891 8.48692 20.176C8.35674 20.1227 8.23293 20.0522 8.09464 19.9834L8.09375 19.9825Z" fill="white"/>
<path d="M16.1774 4.07555C15.7327 4.95122 15.2935 5.8151 14.856 6.6808C14.8198 6.75225 14.7891 6.77034 14.7096 6.73598C14.4836 6.63736 14.2532 6.54782 14.0227 6.45916C13.9504 6.43113 13.9386 6.39945 13.9621 6.32438C14.2541 5.42702 14.5433 4.52968 14.8289 3.6305C14.8578 3.54004 14.8903 3.51834 14.9789 3.55091C15.3847 3.70288 15.7942 3.84671 16.1756 4.07466L16.1774 4.07555Z" fill="white"/>
<path d="M6.88671 9.36246C6.77917 9.62658 6.67885 9.86449 6.58667 10.1051C6.55595 10.1865 6.52611 10.2164 6.43211 10.1856C5.53554 9.89346 4.63715 9.60671 3.73967 9.31815C3.68816 9.30191 3.63395 9.28556 3.66013 9.21138C3.80835 8.79531 3.9602 8.38012 4.19159 7.97754C5.08002 8.46695 6.01635 8.8568 6.88583 9.36246H6.88671Z" fill="white"/>
<path d="M17.7388 13.8345C18.0244 13.924 18.3063 14.01 18.5866 14.1004C19.2346 14.3094 19.8817 14.522 20.5306 14.729C20.6102 14.7544 20.6346 14.7815 20.6002 14.862C20.4402 15.2375 20.2839 15.6138 20.1257 15.9901C20.1149 16.0164 20.0941 16.0389 20.076 16.0661C19.2111 15.6256 18.3515 15.1868 17.4902 14.7517C17.3971 14.7046 17.3809 14.6622 17.4278 14.5626C17.5382 14.3302 17.6312 14.0886 17.7378 13.8345H17.7388Z" fill="white"/>
</svg>

<svg xmlns="http://www.w3.org/2000/svg" width="24" height="24" viewBox="0 0 24 24" fill="none"><path fill="#fff" d="M12.883 14.84c.227-.098.442-.192.66-.28.023-.008.083.022.099.05q.648 1.113 1.292 2.227l.16.271.508-.337 1.797 2.462c-.37.29-.78.515-1.198.754-.03-.052-.056-.096-.08-.142l-1.198-2.367c-.018-.034-.031-.074-.06-.094s-.079-.039-.108-.027c-.23.09-.454.19-.683.283-.057.023-.082.042-.059.114q.431 1.307.856 2.616c.014.043.031.084.05.138-.45.156-.908.263-1.386.333-.16-1.006-.32-2.003-.478-3.003.17-.038.33-.079.491-.108.089-.017.104-.047.08-.137-.252-.917-.497-1.835-.745-2.755zm4.324-5.782c-.102-.154-.195-.299-.294-.44-.037-.052-.03-.08.022-.117l2.379-1.739c.005-.003.013-.004.044-.013l.743 1.2L17.44 9.32l.354.845.59-.196 2.092-.683c.143-.047.149-.047.186.095.104.405.205.811.311 1.236l-3.03.483c-.036-.168-.076-.326-.107-.486-.017-.089-.053-.105-.14-.08q-1.322.361-2.643.718-.053.013-.116.026-.022-.062-.044-.117c-.06-.146-.112-.294-.178-.436-.089-.188-.09-.154.077-.251q1.165-.68 2.331-1.356c.026-.015.049-.033.087-.058zM4.17 16.103l2.663-1.374-.352-.84-2.824.921a8 8 0 0 1-.332-1.38l3.005-.48c.037.166.077.324.106.486.016.09.05.106.137.082q1.353-.369 2.708-.735l.05-.013.05.124c.05.13.096.26.152.387.096.213.099.212-.11.333l-2.11 1.225c-.08.047-.158.096-.248.15.1.153.194.302.293.447.034.05.033.078-.02.118q-1.036.748-2.067 1.5l-.353.256-.75-1.205zM9.353 3.515l1.378-.328.485 3.022c-.196.044-.391.09-.598.136l.773 2.874q-.082.029-.162.06c-.149.063-.3.121-.442.194-.083.041-.124.031-.17-.048q-.431-.751-.867-1.5l-.57-.98-.511.333L6.861 4.8l1.203-.749c.03.05.05.08.066.113l1.198 2.368c.1.198.101.193.303.106.178-.078.357-.155.54-.22.089-.03.107-.06.077-.15q-.435-1.324-.866-2.65c-.008-.024-.013-.048-.029-.102zm-.171 13.669c-.148-.092-.284-.17-.412-.26-.084-.06-.133-.049-.192.034q-.82 1.142-1.643 2.282l-.024.035c-.378-.293-.748-.581-1.078-.931l4.268-4.25.6.46zm10.199.093-.925 1.081c-1.43-1.45-2.839-2.875-4.248-4.301l.452-.595 2.63 1.522c-.09.142-.17.285-.267.415-.066.087-.047.128.035.186q1.088.785 2.175 1.577c.043.031.082.064.148.115M10.08 9.975l-.468.61-1.065-.613q-.724-.42-1.45-.837c-.086-.049-.114-.091-.048-.18.075-.103.132-.219.207-.321.055-.074.037-.11-.033-.16q-1.149-.828-2.296-1.66c-.005-.004-.008-.012-.03-.044l.922-1.088zm7.293-5.208 1.078.917-4.282 4.273-.345-.272-.072-.054c-.182-.126-.184-.127-.076-.316q.678-1.178 1.354-2.36c.04-.069.08-.078.142-.038.11.07.226.134.332.21.076.056.122.057.181-.025q.803-1.118 1.61-2.236l.077-.1zm-2.43 8.015.094-.75h6.032l-.1 1.39c-.29-.046-.551-.085-.814-.126l-2.064-.324c-.068-.01-.1.004-.11.081-.016.13-.053.257-.072.387-.015.097-.06.114-.148.091q-.66-.18-1.322-.354l-1.39-.362c-.039-.01-.077-.024-.107-.032zM9.33 11.268l-.095.75h-6.03l.098-1.389 2.965.46c.035-.168.072-.316.095-.467.017-.115.072-.13.172-.103q.579.16 1.16.312l1.54.407q.055.016.094.03zm2.807-2.151V3.105c.458-.01.91.026 1.379.096-.02.15-.036.297-.059.443q-.187 1.194-.379 2.387c-.015.094.005.136.106.147.119.012.234.051.353.067.114.014.13.064.103.168q-.197.726-.389 1.454l-.33 1.272c-.017.064-.043.083-.11.072-.219-.035-.437-.062-.674-.094m-.009 11.852c-.438-.037-.866-.074-1.295-.109-.08-.006-.076-.053-.067-.108l.211-1.379.215-1.367q.007-.053.008-.11c-.16-.033-.31-.059-.46-.091-.133-.03-.14-.044-.105-.176l.567-2.128q.09-.338.175-.666l.75.096zm-4.034-.986c.242-.483.473-.944.707-1.405.205-.404.415-.805.619-1.21.033-.067.061-.09.135-.059q.351.149.708.286c.08.031.059.084.042.138q-.118.375-.238.749l-.631 1.978c-.023.07-.066.06-.114.043-.28-.108-.559-.214-.835-.327-.13-.053-.254-.124-.392-.193zm8.083-15.907L14.856 6.68c-.036.071-.067.09-.146.055a17 17 0 0 0-.687-.277c-.073-.028-.084-.06-.06-.135q.437-1.345.866-2.693c.029-.091.061-.113.15-.08.406.152.815.296 1.197.524zm-9.29 5.286c-.108.265-.208.502-.3.743-.031.082-.06.111-.155.08-.896-.292-1.795-.578-2.692-.867-.052-.016-.106-.032-.08-.107.148-.416.3-.83.532-1.233.888.489 1.824.879 2.694 1.384m10.853 4.473q.427.132.848.265.971.317 1.944.629c.08.025.104.053.07.133q-.239.564-.475 1.128c-.011.026-.032.049-.05.076-.865-.44-1.724-.88-2.586-1.314-.093-.047-.11-.09-.062-.19.11-.232.203-.473.31-.727"/></svg>
